icons/Briefcase_3.svg

<svg width="24" height="24" viewBox="0 0 24 24" fill="none" xmlns="http://www.w3.org/2000/svg">
<path fill-rule="evenodd" clip-rule="evenodd" d="M13.9997,2.25008c1.5188,0 2.75,1.23121 2.75,2.75v1.25h2.25c1.5188,0 2.75,1.23121 2.75,2.75v9.00002c0,1.5188 -1.2312,2.75 -2.75,2.75h-14.00001c-1.51878,0 -2.75,-1.2312 -2.75,-2.75v-9.00002c0,-1.51879 1.23122,-2.75 2.75,-2.75h2.25v-1.25c0,-1.51879 1.23122,-2.75 2.75,-2.75zM15.2497,6.25008v-1.25c0,-0.69036 -0.5596,-1.25 -1.25,-1.25h-4.00001c-0.69035,0 -1.25,0.55964 -1.25,1.25v1.25zM7.24969,7.75008h-2.25c-0.69035,0 -1.25,0.55964 -1.25,1.25v2.16842c1.59465,0.8585 3.82046,1.5892 6.00968,1.909c0.08555,-0.7472 0.72013,-1.3275 1.49023,-1.3275h1.5c0.7701,0 1.4047,0.5804 1.4902,1.3276c2.1892,-0.3197 4.4151,-1.0503 6.0099,-1.9087v-2.16882c0,-0.69036 -0.5596,-1.25 -1.25,-1.25h-2.25h-0.75h-8.00001zM14.2496,14.5909v0.1591c0,0.8284 -0.6716,1.5 -1.5,1.5h-1.5c-0.8285,0 -1.50005,-0.6716 -1.50005,-1.5v-0.1593c-2.12774,-0.2876 -4.28978,-0.939 -5.99986,-1.7438v5.1532c0,0.6903 0.55965,1.25 1.25,1.25h14.00001c0.6904,0 1.25,-0.5597 1.25,-1.25v-5.1529c-1.7102,0.8048 -3.8724,1.4562 -6.0001,1.7437zM11.2496,14.75h1.5v-1.5h-1.5z" fill="#002B51"/>
</svg>

<svg width="24" height="24" viewBox="0 0 24 24" fill="none" xmlns="http://www.w3.org/2000/svg">
<path fill-rule="evenodd" clip-rule="evenodd" d="M9.99969 2.25008C8.48091 2.25008 7.24969 3.48129 7.24969 5.00008V6.25008H4.99969C3.48091 6.25008 2.24969 7.48129 2.24969 9.00008V18.0001C2.24969 19.5189 3.48091 20.7501 4.99969 20.7501H18.9997C20.5185 20.7501 21.7497 19.5189 21.7497 18.0001V9.00008C21.7497 7.48129 20.5185 6.25008 18.9997 6.25008H16.7497V5.00008C16.7497 3.48129 15.5185 2.25008 13.9997 2.25008H9.99969ZM15.2497 6.25008V5.00008C15.2497 4.30972 14.6901 3.75008 13.9997 3.75008H9.99969C9.30934 3.75008 8.74969 4.30972 8.74969 5.00008V6.25008H15.2497ZM7.24969 7.75008H4.99969C4.30934 7.75008 3.74969 8.30972 3.74969 9.00008V11.1685C5.34434 12.027 7.57015 12.7577 9.75937 13.0775C9.84492 12.3303 10.4795 11.75 11.2496 11.75H12.7496C13.5197 11.75 14.1543 12.3304 14.2398 13.0776C16.429 12.7579 18.6549 12.0273 20.2497 11.1689V9.00008C20.2497 8.30972 19.6901 7.75008 18.9997 7.75008H16.7497H15.9997H7.99969H7.24969ZM14.2496 14.5909V14.75C14.2496 15.5784 13.578 16.25 12.7496 16.25H11.2496C10.4211 16.25 9.74955 15.5784 9.74955 14.75V14.5907C7.62181 14.3031 5.45977 13.6517 3.74969 12.8469V18.0001C3.74969 18.6904 4.30934 19.2501 4.99969 19.2501H18.9997C19.6901 19.2501 20.2497 18.6904 20.2497 18.0001V12.8472C18.5395 13.652 16.3773 14.3034 14.2496 14.5909ZM11.2496 13.25H12.7496V14.75H11.2496V13.25Z" fill="#002B51"/>
</svg>
